X: 82
T: Miss Edmonstone of Newton's Strathspey
R: strathspey
Q: "Slow"
B: William Shepherd "1st Collection" 1793 p.8 #2
F: http://imslp.org/wiki/File:PMLP73094-Shepherd_Collections_HMT.pdf
C: William Shepherd (17??-1812)
Z: 2012 John Chambers <jc:trillian.mit.edu>
M: C
L: 1/16
K: D
F2 |\
TD3FTA3F d3FTA3F | A3d (gf).e.d c2e2e2f2 |\
TD3FTA3F d3FTA3F | E3g (fg).a.g f2d2 d2 :||: fg |\
a3df3d a3d (ba).g.f |
A3Td (gf).e.d c2e2e2fg |\
[1 a3dTf3d a3d TA3F | G3B (AG).F.E D2d2 d2 :|\
[2 a3fd3A B2cd A2TF2 | G3B efge f2d2 d2 |]
